; ====== GENERATED BY generate_rocking_gcode.py (v2) ======
; Created: 2025-06-05 22:49
; --- Heat bed ---
M140 S50.0
M190 S50.0

; --- Home XY ---
G28 X Y

; --- Rocking for 30.0 min → 450 cycles ---
G1 Y110.00  F600
G1 Y90.00 F600
G1 Y110.00  F600
G1 Y110.00  F600
G1 Y90.00 F600
G1 Y110.00  F600
G1 Y110.00  F600
G1 Y90.00 F600
G1 Y110.00  F600
G1 Y110.00  F600
G1 Y90.00 F600
G1 Y110.00  F600
G1 Y110.00  F600
G1 Y90.00 F600
G1 Y110.00  F600
G1 Y110.00  F600
G1 Y90.00 F600
G1 Y110.00  F600
G1 Y110.00  F600
G1 Y90.00 F600
G1 Y110.00  F600
G1 Y110.00  F600
G1 Y90.00 F600
G1 Y110.00  F600
G1 Y110.00  F600
G1 Y90.00 F600
G1 Y110.00  F600
G1 Y110.00  F600
G1 Y90.00 F600
G1 Y110.00  F600
G1 Y110.00  F600
G1 Y90.00 F600
G1 Y110.00  F600
G1 Y110.00  F600
G1 Y90.00 F600
G1 Y110.00  F600
G1 Y110.00  F600
G1 Y90.00 F600
G1 Y110.00  F600
G1 Y110.00  F600
G1 Y90.00 F600
G1 Y110.00  F600
G1 Y110.00  F600
G1 Y90.00 F600
G1 Y110.00  F600
G1 Y110.00  F600
G1 Y90.00 F600
G1 Y110.00  F600
G1 Y110.00  F600
G1 Y90.00 F600
G1 Y110.00  F600
G1 Y110.00  F600
G1 Y90.00 F600
G1 Y110.00  F600
G1 Y110.00  F600
G1 Y90.00 F600
G1 Y110.00  F600
G1 Y110.00  F600
G1 Y90.00 F600
G1 Y110.00  F600
G1 Y110.00  F600
G1 Y90.00 F600
G1 Y110.00  F600
G1 Y110.00  F600
G1 Y90.00 F600
G1 Y110.00  F600
G1 Y110.00  F600
G1 Y90.00 F600
G1 Y110.00  F600
G1 Y110.00  F600
G1 Y90.00 F600
G1 Y110.00  F600
G1 Y110.00  F600
G1 Y90.00 F600
G1 Y110.00  F600
G1 Y110.00  F600
G1 Y90.00 F600
G1 Y110.00  F600
G1 Y110.00  F600
G1 Y90.00 F600
G1 Y110.00  F600
G1 Y110.00  F600
G1 Y90.00 F600
G1 Y110.00  F600
G1 Y110.00  F600
G1 Y90.00 F600
G1 Y110.00  F600
G1 Y110.00  F600
G1 Y90.00 F600
G1 Y110.00  F600
G1 Y110.00  F600
G1 Y90.00 F600
G1 Y110.00  F600
G1 Y110.00  F600
G1 Y90.00 F600
G1 Y110.00  F600
G1 Y110.00  F600
G1 Y90.00 F600
G1 Y110.00  F600
G1 Y110.00  F600
G1 Y90.00 F600
G1 Y110.00  F600
G1 Y110.00  F600
G1 Y90.00 F600
G1 Y110.00  F600
G1 Y110.00  F600
G1 Y90.00 F600
G1 Y110.00  F600
G1 Y110.00  F600
G1 Y90.00 F600
G1 Y110.00  F600
G1 Y110.00  F600
G1 Y90.00 F600
G1 Y110.00  F600
G1 Y110.00  F600
G1 Y90.00 F600
G1 Y110.00  F600
G1 Y110.00  F600
G1 Y90.00 F600
G1 Y110.00  F600
G1 Y110.00  F600
G1 Y90.00 F600
G1 Y110.00  F600
G1 Y110.00  F600
G1 Y90.00 F600
G1 Y110.00  F600
G1 Y110.00  F600
G1 Y90.00 F600
G1 Y110.00  F600
G1 Y110.00  F600
G1 Y90.00 F600
G1 Y110.00  F600
G1 Y110.00  F600
G1 Y90.00 F600
G1 Y110.00  F600
G1 Y110.00  F600
G1 Y90.00 F600
G1 Y110.00  F600
G1 Y110.00  F600
G1 Y90.00 F600
G1 Y110.00  F600
G1 Y110.00  F600
G1 Y90.00 F600
G1 Y110.00  F600
G1 Y110.00  F600
G1 Y90.00 F600
G1 Y110.00  F600
G1 Y110.00  F600
G1 Y90.00 F600
G1 Y110.00  F600
G1 Y110.00  F600
G1 Y90.00 F600
G1 Y110.00  F600
G1 Y110.00  F600
G1 Y90.00 F600
G1 Y110.00  F600
G1 Y110.00  F600
G1 Y90.00 F600
G1 Y110.00  F600
G1 Y110.00  F600
G1 Y90.00 F600
G1 Y110.00  F600
G1 Y110.00  F600
G1 Y90.00 F600
G1 Y110.00  F600
G1 Y110.00  F600
G1 Y90.00 F600
G1 Y110.00  F600
G1 Y110.00  F600
G1 Y90.00 F600
G1 Y110.00  F600
G1 Y110.00  F600
G1 Y90.00 F600
G1 Y110.00  F600
G1 Y110.00  F600
G1 Y90.00 F600
G1 Y110.00  F600
G1 Y110.00  F600
G1 Y90.00 F600
G1 Y110.00  F600
G1 Y110.00  F600
G1 Y90.00 F600
G1 Y110.00  F600
G1 Y110.00  F600
G1 Y90.00 F600
G1 Y110.00  F600
G1 Y110.00  F600
G1 Y90.00 F600
G1 Y110.00  F600
G1 Y110.00  F600
G1 Y90.00 F600
G1 Y110.00  F600
G1 Y110.00  F600
G1 Y90.00 F600
G1 Y110.00  F600
G1 Y110.00  F600
G1 Y90.00 F600
G1 Y110.00  F600
G1 Y110.00  F600
G1 Y90.00 F600
G1 Y110.00  F600
G1 Y110.00  F600
G1 Y90.00 F600
G1 Y110.00  F600
G1 Y110.00  F600
G1 Y90.00 F600
G1 Y110.00  F600
G1 Y110.00  F600
G1 Y90.00 F600
G1 Y110.00  F600
G1 Y110.00  F600
G1 Y90.00 F600
G1 Y110.00  F600
G1 Y110.00  F600
G1 Y90.00 F600
G1 Y110.00  F600
G1 Y110.00  F600
G1 Y90.00 F600
G1 Y110.00  F600
G1 Y110.00  F600
G1 Y90.00 F600
G1 Y110.00  F600
G1 Y110.00  F600
G1 Y90.00 F600
G1 Y110.00  F600
G1 Y110.00  F600
G1 Y90.00 F600
G1 Y110.00  F600
G1 Y110.00  F600
G1 Y90.00 F600
G1 Y110.00  F600
G1 Y110.00  F600
G1 Y90.00 F600
G1 Y110.00  F600
G1 Y110.00  F600
G1 Y90.00 F600
G1 Y110.00  F600
G1 Y110.00  F600
G1 Y90.00 F600
G1 Y110.00  F600
G1 Y110.00  F600
G1 Y90.00 F600
G1 Y110.00  F600
G1 Y110.00  F600
G1 Y90.00 F600
G1 Y110.00  F600
G1 Y110.00  F600
G1 Y90.00 F600
G1 Y110.00  F600
G1 Y110.00  F600
G1 Y90.00 F600
G1 Y110.00  F600
G1 Y110.00  F600
G1 Y90.00 F600
G1 Y110.00  F600
G1 Y110.00  F600
G1 Y90.00 F600
G1 Y110.00  F600
G1 Y110.00  F600
G1 Y90.00 F600
G1 Y110.00  F600
G1 Y110.00  F600
G1 Y90.00 F600
G1 Y110.00  F600
G1 Y110.00  F600
G1 Y90.00 F600
G1 Y110.00  F600
G1 Y110.00  F600
G1 Y90.00 F600
G1 Y110.00  F600
G1 Y110.00  F600
G1 Y90.00 F600
G1 Y110.00  F600
G1 Y110.00  F600
G1 Y90.00 F600
G1 Y110.00  F600
G1 Y110.00  F600
G1 Y90.00 F600
G1 Y110.00  F600
G1 Y110.00  F600
G1 Y90.00 F600
G1 Y110.00  F600
G1 Y110.00  F600
G1 Y90.00 F600
G1 Y110.00  F600
G1 Y110.00  F600
G1 Y90.00 F600
G1 Y110.00  F600
G1 Y110.00  F600
G1 Y90.00 F600
G1 Y110.00  F600
G1 Y110.00  F600
G1 Y90.00 F600
G1 Y110.00  F600
G1 Y110.00  F600
G1 Y90.00 F600
G1 Y110.00  F600
G1 Y110.00  F600
G1 Y90.00 F600
G1 Y110.00  F600
G1 Y110.00  F600
G1 Y90.00 F600
G1 Y110.00  F600
G1 Y110.00  F600
G1 Y90.00 F600
G1 Y110.00  F600
G1 Y110.00  F600
G1 Y90.00 F600
G1 Y110.00  F600
G1 Y110.00  F600
G1 Y90.00 F600
G1 Y110.00  F600
G1 Y110.00  F600
G1 Y90.00 F600
G1 Y110.00  F600
G1 Y110.00  F600
G1 Y90.00 F600
G1 Y110.00  F600
G1 Y110.00  F600
G1 Y90.00 F600
G1 Y110.00  F600
G1 Y110.00  F600
G1 Y90.00 F600
G1 Y110.00  F600
G1 Y110.00  F600
G1 Y90.00 F600
G1 Y110.00  F600
G1 Y110.00  F600
G1 Y90.00 F600
G1 Y110.00  F600
G1 Y110.00  F600
G1 Y90.00 F600
G1 Y110.00  F600
G1 Y110.00  F600
G1 Y90.00 F600
G1 Y110.00  F600
G1 Y110.00  F600
G1 Y90.00 F600
G1 Y110.00  F600
G1 Y110.00  F600
G1 Y90.00 F600
G1 Y110.00  F600
G1 Y110.00  F600
G1 Y90.00 F600
G1 Y110.00  F600
G1 Y110.00  F600
G1 Y90.00 F600
G1 Y110.00  F600
G1 Y110.00  F600
G1 Y90.00 F600
G1 Y110.00  F600
G1 Y110.00  F600
G1 Y90.00 F600
G1 Y110.00  F600
G1 Y110.00  F600
G1 Y90.00 F600
G1 Y110.00  F600
G1 Y110.00  F600
G1 Y90.00 F600
G1 Y110.00  F600
G1 Y110.00  F600
G1 Y90.00 F600
G1 Y110.00  F600
G1 Y110.00  F600
G1 Y90.00 F600
G1 Y110.00  F600
G1 Y110.00  F600
G1 Y90.00 F600
G1 Y110.00  F600
G1 Y110.00  F600
G1 Y90.00 F600
G1 Y110.00  F600
G1 Y110.00  F600
G1 Y90.00 F600
G1 Y110.00  F600
G1 Y110.00  F600
G1 Y90.00 F600
G1 Y110.00  F600
G1 Y110.00  F600
G1 Y90.00 F600
G1 Y110.00  F600
G1 Y110.00  F600
G1 Y90.00 F600
G1 Y110.00  F600
G1 Y110.00  F600
G1 Y90.00 F600
G1 Y110.00  F600
G1 Y110.00  F600
G1 Y90.00 F600
G1 Y110.00  F600
G1 Y110.00  F600
G1 Y90.00 F600
G1 Y110.00  F600
G1 Y110.00  F600
G1 Y90.00 F600
G1 Y110.00  F600
G1 Y110.00  F600
G1 Y90.00 F600
G1 Y110.00  F600
G1 Y110.00  F600
G1 Y90.00 F600
G1 Y110.00  F600
G1 Y110.00  F600
G1 Y90.00 F600
G1 Y110.00  F600
G1 Y110.00  F600
G1 Y90.00 F600
G1 Y110.00  F600
G1 Y110.00  F600
G1 Y90.00 F600
G1 Y110.00  F600
G1 Y110.00  F600
G1 Y90.00 F600
G1 Y110.00  F600
G1 Y110.00  F600
G1 Y90.00 F600
G1 Y110.00  F600
G1 Y110.00  F600
G1 Y90.00 F600
G1 Y110.00  F600
G1 Y110.00  F600
G1 Y90.00 F600
G1 Y110.00  F600
G1 Y110.00  F600
G1 Y90.00 F600
G1 Y110.00  F600
G1 Y110.00  F600
G1 Y90.00 F600
G1 Y110.00  F600
G1 Y110.00  F600
G1 Y90.00 F600
G1 Y110.00  F600
G1 Y110.00  F600
G1 Y90.00 F600
G1 Y110.00  F600
G1 Y110.00  F600
G1 Y90.00 F600
G1 Y110.00  F600
G1 Y110.00  F600
G1 Y90.00 F600
G1 Y110.00  F600
G1 Y110.00  F600
G1 Y90.00 F600
G1 Y110.00  F600
G1 Y110.00  F600
G1 Y90.00 F600
G1 Y110.00  F600
G1 Y110.00  F600
G1 Y90.00 F600
G1 Y110.00  F600
G1 Y110.00  F600
G1 Y90.00 F600
G1 Y110.00  F600
G1 Y110.00  F600
G1 Y90.00 F600
G1 Y110.00  F600
G1 Y110.00  F600
G1 Y90.00 F600
G1 Y110.00  F600
G1 Y110.00  F600
G1 Y90.00 F600
G1 Y110.00  F600
G1 Y110.00  F600
G1 Y90.00 F600
G1 Y110.00  F600
G1 Y110.00  F600
G1 Y90.00 F600
G1 Y110.00  F600
G1 Y110.00  F600
G1 Y90.00 F600
G1 Y110.00  F600
G1 Y110.00  F600
G1 Y90.00 F600
G1 Y110.00  F600
G1 Y110.00  F600
G1 Y90.00 F600
G1 Y110.00  F600
G1 Y110.00  F600
G1 Y90.00 F600
G1 Y110.00  F600
G1 Y110.00  F600
G1 Y90.00 F600
G1 Y110.00  F600
G1 Y110.00  F600
G1 Y90.00 F600
G1 Y110.00  F600
G1 Y110.00  F600
G1 Y90.00 F600
G1 Y110.00  F600
G1 Y110.00  F600
G1 Y90.00 F600
G1 Y110.00  F600
G1 Y110.00  F600
G1 Y90.00 F600
G1 Y110.00  F600
G1 Y110.00  F600
G1 Y90.00 F600
G1 Y110.00  F600
G1 Y110.00  F600
G1 Y90.00 F600
G1 Y110.00  F600
G1 Y110.00  F600
G1 Y90.00 F600
G1 Y110.00  F600
G1 Y110.00  F600
G1 Y90.00 F600
G1 Y110.00  F600
G1 Y110.00  F600
G1 Y90.00 F600
G1 Y110.00  F600
G1 Y110.00  F600
G1 Y90.00 F600
G1 Y110.00  F600
G1 Y110.00  F600
G1 Y90.00 F600
G1 Y110.00  F600
G1 Y110.00  F600
G1 Y90.00 F600
G1 Y110.00  F600
G1 Y110.00  F600
G1 Y90.00 F600
G1 Y110.00  F600
G1 Y110.00  F600
G1 Y90.00 F600
G1 Y110.00  F600
G1 Y110.00  F600
G1 Y90.00 F600
G1 Y110.00  F600
G1 Y110.00  F600
G1 Y90.00 F600
G1 Y110.00  F600
G1 Y110.00  F600
G1 Y90.00 F600
G1 Y110.00  F600
G1 Y110.00  F600
G1 Y90.00 F600
G1 Y110.00  F600
G1 Y110.00  F600
G1 Y90.00 F600
G1 Y110.00  F600
G1 Y110.00  F600
G1 Y90.00 F600
G1 Y110.00  F600
G1 Y110.00  F600
G1 Y90.00 F600
G1 Y110.00  F600
G1 Y110.00  F600
G1 Y90.00 F600
G1 Y110.00  F600
G1 Y110.00  F600
G1 Y90.00 F600
G1 Y110.00  F600
G1 Y110.00  F600
G1 Y90.00 F600
G1 Y110.00  F600
G1 Y110.00  F600
G1 Y90.00 F600
G1 Y110.00  F600
G1 Y110.00  F600
G1 Y90.00 F600
G1 Y110.00  F600
G1 Y110.00  F600
G1 Y90.00 F600
G1 Y110.00  F600
G1 Y110.00  F600
G1 Y90.00 F600
G1 Y110.00  F600
G1 Y110.00  F600
G1 Y90.00 F600
G1 Y110.00  F600
G1 Y110.00  F600
G1 Y90.00 F600
G1 Y110.00  F600
G1 Y110.00  F600
G1 Y90.00 F600
G1 Y110.00  F600
G1 Y110.00  F600
G1 Y90.00 F600
G1 Y110.00  F600
G1 Y110.00  F600
G1 Y90.00 F600
G1 Y110.00  F600
G1 Y110.00  F600
G1 Y90.00 F600
G1 Y110.00  F600
G1 Y110.00  F600
G1 Y90.00 F600
G1 Y110.00  F600
G1 Y110.00  F600
G1 Y90.00 F600
G1 Y110.00  F600
G1 Y110.00  F600
G1 Y90.00 F600
G1 Y110.00  F600
G1 Y110.00  F600
G1 Y90.00 F600
G1 Y110.00  F600
G1 Y110.00  F600
G1 Y90.00 F600
G1 Y110.00  F600
G1 Y110.00  F600
G1 Y90.00 F600
G1 Y110.00  F600
G1 Y110.00  F600
G1 Y90.00 F600
G1 Y110.00  F600
G1 Y110.00  F600
G1 Y90.00 F600
G1 Y110.00  F600
G1 Y110.00  F600
G1 Y90.00 F600
G1 Y110.00  F600
G1 Y110.00  F600
G1 Y90.00 F600
G1 Y110.00  F600
G1 Y110.00  F600
G1 Y90.00 F600
G1 Y110.00  F600
G1 Y110.00  F600
G1 Y90.00 F600
G1 Y110.00  F600
G1 Y110.00  F600
G1 Y90.00 F600
G1 Y110.00  F600
G1 Y110.00  F600
G1 Y90.00 F600
G1 Y110.00  F600
G1 Y110.00  F600
G1 Y90.00 F600
G1 Y110.00  F600
G1 Y110.00  F600
G1 Y90.00 F600
G1 Y110.00  F600
G1 Y110.00  F600
G1 Y90.00 F600
G1 Y110.00  F600
G1 Y110.00  F600
G1 Y90.00 F600
G1 Y110.00  F600
G1 Y110.00  F600
G1 Y90.00 F600
G1 Y110.00  F600
G1 Y110.00  F600
G1 Y90.00 F600
G1 Y110.00  F600
G1 Y110.00  F600
G1 Y90.00 F600
G1 Y110.00  F600
G1 Y110.00  F600
G1 Y90.00 F600
G1 Y110.00  F600
G1 Y110.00  F600
G1 Y90.00 F600
G1 Y110.00  F600
G1 Y110.00  F600
G1 Y90.00 F600
G1 Y110.00  F600
G1 Y110.00  F600
G1 Y90.00 F600
G1 Y110.00  F600
G1 Y110.00  F600
G1 Y90.00 F600
G1 Y110.00  F600
G1 Y110.00  F600
G1 Y90.00 F600
G1 Y110.00  F600
G1 Y110.00  F600
G1 Y90.00 F600
G1 Y110.00  F600
G1 Y110.00  F600
G1 Y90.00 F600
G1 Y110.00  F600
G1 Y110.00  F600
G1 Y90.00 F600
G1 Y110.00  F600
G1 Y110.00  F600
G1 Y90.00 F600
G1 Y110.00  F600
G1 Y110.00  F600
G1 Y90.00 F600
G1 Y110.00  F600
G1 Y110.00  F600
G1 Y90.00 F600
G1 Y110.00  F600
G1 Y110.00  F600
G1 Y90.00 F600
G1 Y110.00  F600
G1 Y110.00  F600
G1 Y90.00 F600
G1 Y110.00  F600
G1 Y110.00  F600
G1 Y90.00 F600
G1 Y110.00  F600
G1 Y110.00  F600
G1 Y90.00 F600
G1 Y110.00  F600
G1 Y110.00  F600
G1 Y90.00 F600
G1 Y110.00  F600
G1 Y110.00  F600
G1 Y90.00 F600
G1 Y110.00  F600
G1 Y110.00  F600
G1 Y90.00 F600
G1 Y110.00  F600
G1 Y110.00  F600
G1 Y90.00 F600
G1 Y110.00  F600
G1 Y110.00  F600
G1 Y90.00 F600
G1 Y110.00  F600
G1 Y110.00  F600
G1 Y90.00 F600
G1 Y110.00  F600
G1 Y110.00  F600
G1 Y90.00 F600
G1 Y110.00  F600
G1 Y110.00  F600
G1 Y90.00 F600
G1 Y110.00  F600
G1 Y110.00  F600
G1 Y90.00 F600
G1 Y110.00  F600
G1 Y110.00  F600
G1 Y90.00 F600
G1 Y110.00  F600
G1 Y110.00  F600
G1 Y90.00 F600
G1 Y110.00  F600
G1 Y110.00  F600
G1 Y90.00 F600
G1 Y110.00  F600
G1 Y110.00  F600
G1 Y90.00 F600
G1 Y110.00  F600
G1 Y110.00  F600
G1 Y90.00 F600
G1 Y110.00  F600
G1 Y110.00  F600
G1 Y90.00 F600
G1 Y110.00  F600
G1 Y110.00  F600
G1 Y90.00 F600
G1 Y110.00  F600
G1 Y110.00  F600
G1 Y90.00 F600
G1 Y110.00  F600
G1 Y110.00  F600
G1 Y90.00 F600
G1 Y110.00  F600
G1 Y110.00  F600
G1 Y90.00 F600
G1 Y110.00  F600
G1 Y110.00  F600
G1 Y90.00 F600
G1 Y110.00  F600
G1 Y110.00  F600
G1 Y90.00 F600
G1 Y110.00  F600
G1 Y110.00  F600
G1 Y90.00 F600
G1 Y110.00  F600
G1 Y110.00  F600
G1 Y90.00 F600
G1 Y110.00  F600
G1 Y110.00  F600
G1 Y90.00 F600
G1 Y110.00  F600
G1 Y110.00  F600
G1 Y90.00 F600
G1 Y110.00  F600
G1 Y110.00  F600
G1 Y90.00 F600
G1 Y110.00  F600
G1 Y110.00  F600
G1 Y90.00 F600
G1 Y110.00  F600
G1 Y110.00  F600
G1 Y90.00 F600
G1 Y110.00  F600
G1 Y110.00  F600
G1 Y90.00 F600
G1 Y110.00  F600
G1 Y110.00  F600
G1 Y90.00 F600
G1 Y110.00  F600
G1 Y110.00  F600
G1 Y90.00 F600
G1 Y110.00  F600
G1 Y110.00  F600
G1 Y90.00 F600
G1 Y110.00  F600
G1 Y110.00  F600
G1 Y90.00 F600
G1 Y110.00  F600
G1 Y110.00  F600
G1 Y90.00 F600
G1 Y110.00  F600
G1 Y110.00  F600
G1 Y90.00 F600
G1 Y110.00  F600
G1 Y110.00  F600
G1 Y90.00 F600
G1 Y110.00  F600
G1 Y110.00  F600
G1 Y90.00 F600
G1 Y110.00  F600
G1 Y110.00  F600
G1 Y90.00 F600
G1 Y110.00  F600
G1 Y110.00  F600
G1 Y90.00 F600
G1 Y110.00  F600
G1 Y110.00  F600
G1 Y90.00 F600
G1 Y110.00  F600
G1 Y110.00  F600
G1 Y90.00 F600
G1 Y110.00  F600
G1 Y110.00  F600
G1 Y90.00 F600
G1 Y110.00  F600
G1 Y110.00  F600
G1 Y90.00 F600
G1 Y110.00  F600
G1 Y110.00  F600
G1 Y90.00 F600
G1 Y110.00  F600
G1 Y110.00  F600
G1 Y90.00 F600
G1 Y110.00  F600
G1 Y110.00  F600
G1 Y90.00 F600
G1 Y110.00  F600
G1 Y110.00  F600
G1 Y90.00 F600
G1 Y110.00  F600
G1 Y110.00  F600
G1 Y90.00 F600
G1 Y110.00  F600
G1 Y110.00  F600
G1 Y90.00 F600
G1 Y110.00  F600
G1 Y110.00  F600
G1 Y90.00 F600
G1 Y110.00  F600
G1 Y110.00  F600
G1 Y90.00 F600
G1 Y110.00  F600
G1 Y110.00  F600
G1 Y90.00 F600
G1 Y110.00  F600
G1 Y110.00  F600
G1 Y90.00 F600
G1 Y110.00  F600
G1 Y110.00  F600
G1 Y90.00 F600
G1 Y110.00  F600
G1 Y110.00  F600
G1 Y90.00 F600
G1 Y110.00  F600
G1 Y110.00  F600
G1 Y90.00 F600
G1 Y110.00  F600
G1 Y110.00  F600
G1 Y90.00 F600
G1 Y110.00  F600
G1 Y110.00  F600
G1 Y90.00 F600
G1 Y110.00  F600
G1 Y110.00  F600
G1 Y90.00 F600
G1 Y110.00  F600
G1 Y110.00  F600
G1 Y90.00 F600
G1 Y110.00  F600
G1 Y110.00  F600
G1 Y90.00 F600
G1 Y110.00  F600
G1 Y110.00  F600
G1 Y90.00 F600
G1 Y110.00  F600
G1 Y110.00  F600
G1 Y90.00 F600
G1 Y110.00  F600
G1 Y110.00  F600
G1 Y90.00 F600
G1 Y110.00  F600
G1 Y110.00  F600
G1 Y90.00 F600
G1 Y110.00  F600
G1 Y110.00  F600
G1 Y90.00 F600
G1 Y110.00  F600
G1 Y110.00  F600
G1 Y90.00 F600
G1 Y110.00  F600
G1 Y110.00  F600
G1 Y90.00 F600
G1 Y110.00  F600
G1 Y110.00  F600
G1 Y90.00 F600
G1 Y110.00  F600
G1 Y110.00  F600
G1 Y90.00 F600
G1 Y110.00  F600
G1 Y110.00  F600
G1 Y90.00 F600
G1 Y110.00  F600
G1 Y110.00  F600
G1 Y90.00 F600
G1 Y110.00  F600
G1 Y110.00  F600
G1 Y90.00 F600
G1 Y110.00  F600
G1 Y110.00  F600
G1 Y90.00 F600
G1 Y110.00  F600
G1 Y110.00  F600
G1 Y90.00 F600
G1 Y110.00  F600
G1 Y110.00  F600
G1 Y90.00 F600
G1 Y110.00  F600
G1 Y110.00  F600
G1 Y90.00 F600
G1 Y110.00  F600
G1 Y110.00  F600
G1 Y90.00 F600
G1 Y110.00  F600
G1 Y110.00  F600
G1 Y90.00 F600
G1 Y110.00  F600
G1 Y110.00  F600
G1 Y90.00 F600
G1 Y110.00  F600
G1 Y110.00  F600
G1 Y90.00 F600
G1 Y110.00  F600
G1 Y110.00  F600
G1 Y90.00 F600
G1 Y110.00  F600
G1 Y110.00  F600
G1 Y90.00 F600
G1 Y110.00  F600
G1 Y110.00  F600
G1 Y90.00 F600
G1 Y110.00  F600
G1 Y110.00  F600
G1 Y90.00 F600
G1 Y110.00  F600
G1 Y110.00  F600
G1 Y90.00 F600
G1 Y110.00  F600
G1 Y110.00  F600
G1 Y90.00 F600
G1 Y110.00  F600
G1 Y110.00  F600
G1 Y90.00 F600
G1 Y110.00  F600
G1 Y110.00  F600
G1 Y90.00 F600
G1 Y110.00  F600
G1 Y110.00  F600
G1 Y90.00 F600
G1 Y110.00  F600
G1 Y110.00  F600
G1 Y90.00 F600
G1 Y110.00  F600
G1 Y110.00  F600
G1 Y90.00 F600
G1 Y110.00  F600
G1 Y110.00  F600
G1 Y90.00 F600
G1 Y110.00  F600
G1 Y110.00  F600
G1 Y90.00 F600
G1 Y110.00  F600
G1 Y110.00  F600
G1 Y90.00 F600
G1 Y110.00  F600
G1 Y110.00  F600
G1 Y90.00 F600
G1 Y110.00  F600
G1 Y110.00  F600
G1 Y90.00 F600
G1 Y110.00  F600
G1 Y110.00  F600
G1 Y90.00 F600
G1 Y110.00  F600
G1 Y110.00  F600
G1 Y90.00 F600
G1 Y110.00  F600
G1 Y110.00  F600
G1 Y90.00 F600
G1 Y110.00  F600
G1 Y110.00  F600
G1 Y90.00 F600
G1 Y110.00  F600
G1 Y110.00  F600
G1 Y90.00 F600
G1 Y110.00  F600
G1 Y110.00  F600
G1 Y90.00 F600
G1 Y110.00  F600
G1 Y110.00  F600
G1 Y90.00 F600
G1 Y110.00  F600
G1 Y110.00  F600
G1 Y90.00 F600
G1 Y110.00  F600
G1 Y110.00  F600
G1 Y90.00 F600
G1 Y110.00  F600
G1 Y110.00  F600
G1 Y90.00 F600
G1 Y110.00  F600
G1 Y110.00  F600
G1 Y90.00 F600
G1 Y110.00  F600
G1 Y110.00  F600
G1 Y90.00 F600
G1 Y110.00  F600
G1 Y110.00  F600
G1 Y90.00 F600
G1 Y110.00  F600
G1 Y110.00  F600
G1 Y90.00 F600
G1 Y110.00  F600
G1 Y110.00  F600
G1 Y90.00 F600
G1 Y110.00  F600
G1 Y110.00  F600
G1 Y90.00 F600
G1 Y110.00  F600
G1 Y110.00  F600
G1 Y90.00 F600
G1 Y110.00  F600
G1 Y110.00  F600
G1 Y90.00 F600
G1 Y110.00  F600
G1 Y110.00  F600
G1 Y90.00 F600
G1 Y110.00  F600
G1 Y110.00  F600
G1 Y90.00 F600
G1 Y110.00  F600
G1 Y110.00  F600
G1 Y90.00 F600
G1 Y110.00  F600
G1 Y110.00  F600
G1 Y90.00 F600
G1 Y110.00  F600
G1 Y110.00  F600
G1 Y90.00 F600
G1 Y110.00  F600
G1 Y110.00  F600
G1 Y90.00 F600
G1 Y110.00  F600
G1 Y110.00  F600
G1 Y90.00 F600
G1 Y110.00  F600
G1 Y110.00  F600
G1 Y90.00 F600
G1 Y110.00  F600
G1 Y110.00  F600
G1 Y90.00 F600
G1 Y110.00  F600
G1 Y110.00  F600
G1 Y90.00 F600
G1 Y110.00  F600
G1 Y110.00  F600
G1 Y90.00 F600
G1 Y110.00  F600
G1 Y110.00  F600
G1 Y90.00 F600
G1 Y110.00  F600
G1 Y110.00  F600
G1 Y90.00 F600
G1 Y110.00  F600
G1 Y110.00  F600
G1 Y90.00 F600
G1 Y110.00  F600
G1 Y110.00  F600
G1 Y90.00 F600
G1 Y110.00  F600
G1 Y110.00  F600
G1 Y90.00 F600
G1 Y110.00  F600
G1 Y110.00  F600
G1 Y90.00 F600
G1 Y110.00  F600
G1 Y110.00  F600
G1 Y90.00 F600
G1 Y110.00  F600
G1 Y110.00  F600
G1 Y90.00 F600
G1 Y110.00  F600
G1 Y110.00  F600
G1 Y90.00 F600
G1 Y110.00  F600
G1 Y110.00  F600
G1 Y90.00 F600
G1 Y110.00  F600
G1 Y110.00  F600
G1 Y90.00 F600
G1 Y110.00  F600
G1 Y110.00  F600
G1 Y90.00 F600
G1 Y110.00  F600
G1 Y110.00  F600
G1 Y90.00 F600
G1 Y110.00  F600
G1 Y110.00  F600
G1 Y90.00 F600
G1 Y110.00  F600
G1 Y110.00  F600
G1 Y90.00 F600
G1 Y110.00  F600
G1 Y110.00  F600
G1 Y90.00 F600
G1 Y110.00  F600
G1 Y110.00  F600
G1 Y90.00 F600
G1 Y110.00  F600
G1 Y110.00  F600
G1 Y90.00 F600
G1 Y110.00  F600
G1 Y110.00  F600
G1 Y90.00 F600
G1 Y110.00  F600
G1 Y110.00  F600
G1 Y90.00 F600
G1 Y110.00  F600
G1 Y110.00  F600
G1 Y90.00 F600
G1 Y110.00  F600
G1 Y110.00  F600
G1 Y90.00 F600
G1 Y110.00  F600
G1 Y110.00  F600
G1 Y90.00 F600
G1 Y110.00  F600
G1 Y110.00  F600
G1 Y90.00 F600
G1 Y110.00  F600
G1 Y110.00  F600
G1 Y90.00 F600
G1 Y110.00  F600
G1 Y110.00  F600
G1 Y90.00 F600
G1 Y110.00  F600
G1 Y110.00  F600
G1 Y90.00 F600
G1 Y110.00  F600
G1 Y110.00  F600
G1 Y90.00 F600
G1 Y110.00  F600
G1 Y110.00  F600
G1 Y90.00 F600
G1 Y110.00  F600
G1 Y110.00  F600
G1 Y90.00 F600
G1 Y110.00  F600
G1 Y110.00  F600
G1 Y90.00 F600
G1 Y110.00  F600
G1 Y110.00  F600
G1 Y90.00 F600
G1 Y110.00  F600
G1 Y110.00  F600
G1 Y90.00 F600
G1 Y110.00  F600
G1 Y110.00  F600
G1 Y90.00 F600
G1 Y110.00  F600
G1 Y110.00  F600
G1 Y90.00 F600
G1 Y110.00  F600
G1 Y110.00  F600
G1 Y90.00 F600
G1 Y110.00  F600
G1 Y110.00  F600
G1 Y90.00 F600
G1 Y110.00  F600
G1 Y110.00  F600
G1 Y90.00 F600
G1 Y110.00  F600
G1 Y110.00  F600
G1 Y90.00 F600
G1 Y110.00  F600
G1 Y110.00  F600
G1 Y90.00 F600
G1 Y110.00  F600
G1 Y110.00  F600
G1 Y90.00 F600
G1 Y110.00  F600
G1 Y110.00  F600
G1 Y90.00 F600
G1 Y110.00  F600
G1 Y110.00  F600
G1 Y90.00 F600
G1 Y110.00  F600
G1 Y110.00  F600
G1 Y90.00 F600
G1 Y110.00  F600
G1 Y110.00  F600
G1 Y90.00 F600
G1 Y110.00  F600
G1 Y110.00  F600
G1 Y90.00 F600
G1 Y110.00  F600
G1 Y110.00  F600
G1 Y90.00 F600
G1 Y110.00  F600
G1 Y110.00  F600
G1 Y90.00 F600
G1 Y110.00  F600
G1 Y110.00  F600
G1 Y90.00 F600
G1 Y110.00  F600
G1 Y110.00  F600
G1 Y90.00 F600
G1 Y110.00  F600
G1 Y110.00  F600
G1 Y90.00 F600
G1 Y110.00  F600
G1 Y110.00  F600
G1 Y90.00 F600
G1 Y110.00  F600
G1 Y110.00  F600
G1 Y90.00 F600
G1 Y110.00  F600
G1 Y110.00  F600
G1 Y90.00 F600
G1 Y110.00  F600
G1 Y110.00  F600
G1 Y90.00 F600
G1 Y110.00  F600
G1 Y110.00  F600
G1 Y90.00 F600
G1 Y110.00  F600
G1 Y110.00  F600
G1 Y90.00 F600
G1 Y110.00  F600
G1 Y110.00  F600
G1 Y90.00 F600
G1 Y110.00  F600
G1 Y110.00  F600
G1 Y90.00 F600
G1 Y110.00  F600
G1 Y110.00  F600
G1 Y90.00 F600
G1 Y110.00  F600
G1 Y110.00  F600
G1 Y90.00 F600
G1 Y110.00  F600
G1 Y110.00  F600
G1 Y90.00 F600
G1 Y110.00  F600
G1 Y110.00  F600
G1 Y90.00 F600
G1 Y110.00  F600
G1 Y110.00  F600
G1 Y90.00 F600
G1 Y110.00  F600
G1 Y110.00  F600
G1 Y90.00 F600
G1 Y110.00  F600
G1 Y110.00  F600
G1 Y90.00 F600
G1 Y110.00  F600
G1 Y110.00  F600
G1 Y90.00 F600
G1 Y110.00  F600
G1 Y110.00  F600
G1 Y90.00 F600
G1 Y110.00  F600
G1 Y110.00  F600
G1 Y90.00 F600
G1 Y110.00  F600
G1 Y110.00  F600
G1 Y90.00 F600
G1 Y110.00  F600
G1 Y110.00  F600
G1 Y90.00 F600
G1 Y110.00  F600
G1 Y110.00  F600
G1 Y90.00 F600
G1 Y110.00  F600
G1 Y110.00  F600
G1 Y90.00 F600
G1 Y110.00  F600
G1 Y110.00  F600
G1 Y90.00 F600
G1 Y110.00  F600
G1 Y110.00  F600
G1 Y90.00 F600
G1 Y110.00  F600
G1 Y110.00  F600
G1 Y90.00 F600
G1 Y110.00  F600
G1 Y110.00  F600
G1 Y90.00 F600
G1 Y110.00  F600
G1 Y110.00  F600
G1 Y90.00 F600
G1 Y110.00  F600
G1 Y110.00  F600
G1 Y90.00 F600
G1 Y110.00  F600
G1 Y110.00  F600
G1 Y90.00 F600
G1 Y110.00  F600
G1 Y110.00  F600
G1 Y90.00 F600
G1 Y110.00  F600
G1 Y110.00  F600
G1 Y90.00 F600
G1 Y110.00  F600
G1 Y110.00  F600
G1 Y90.00 F600
G1 Y110.00  F600
G1 Y110.00  F600
G1 Y90.00 F600
G1 Y110.00  F600
G1 Y110.00  F600
G1 Y90.00 F600
G1 Y110.00  F600
G1 Y110.00  F600
G1 Y90.00 F600
G1 Y110.00  F600
G1 Y110.00  F600
G1 Y90.00 F600
G1 Y110.00  F600
G1 Y110.00  F600
G1 Y90.00 F600
G1 Y110.00  F600
G1 Y110.00  F600
G1 Y90.00 F600
G1 Y110.00  F600
G1 Y110.00  F600
G1 Y90.00 F600
G1 Y110.00  F600
G1 Y110.00  F600
G1 Y90.00 F600
G1 Y110.00  F600
G1 Y110.00  F600
G1 Y90.00 F600
G1 Y110.00  F600
; ===== END OF PROGRAM =====
